!!!COA:	Josquin des Prez
!!!CDT:	~1450-1521/08/27
!!!OTL@@LAT: Magnificat quarti toni
!!!AGN:	Motet
!!!SCT:	NJE 20.4
!!!SCA:	New Josquin Edition 20.4
!!!ONB:	Verse 6: Fecit potentiam
!!!voices:	4
**kern	**kern	**kern	**kern
*staff4	*staff3	*staff2	*staff1
*Ivox	*Ivox	*Ivox	*Ivox
*I"Bassus	*I"Tenor	*I"Altus	*I"Superius
*I'B	*I'T	*I'A	*I'S
*clefF4	*clefGv2	*clefGv2	*clefG2
*k[]	*k[]	*k[]	*k[]
=1-	=1-	=1-	=1-
!	!	!	!LO:TX:Z=10:t=[No mensuration sign in either voice]
1r	1e	1r	1r
=2	=2	=2	=2
1r	1e	1r	1r
=3	=3	=3	=3
1r	1d	1r	1r
=4	=4	=4	=4
1r	1e	1r	1r
=5	=5	=5	=5
1r	2.f\	1r	1a
.	4e\	.	.
=6	=6	=6	=6
1r	2d\	1r	1a
.	2c\	.	.
=7	=7	=7	=7
1r	4B\	1r	1g#
.	4A/	.	.
.	2B\	.	.
=8	=8	=8	=8
1r	1A	1r	1a
=9	=9	=9	=9
1r	2r	1r	2.b\
.	[2e\	.	.
.	.	.	4a/
=10	=10	=10	=10
1r	2e\]	1r	2g/
.	2d\	.	2f#/
=11	=11	=11	=11
1r	4B\	1r	1g
.	4A/	.	.
.	2B\	.	.
=12	=12	=12	=12
1r	2r	1r	2f#i/
.	2d\	.	[2a/
=13	=13	=13	=13
1r	2f\	1r	2a/]
.	[2e\	.	2g/
=14	=14	=14	=14
1r	2e\]	1r	1cc
.	2c\	.	.
=15	=15	=15	=15
1r	2d\	1r	2b\
.	2e\	.	2g#/
=16	=16	=16	=16
1r	2.f\	1r	2a/
.	.	.	2cc\
.	4e\	.	.
=17	=17	=17	=17
1r	2d\	1r	2b\
.	2c#\	.	[2a/
=18	=18	=18	=18
1r	2d\	1r	2a/]
.	2e\	.	2g#/
=19	=19	=19	=19
1r	2A/	1r	2a/
.	[2e\	.	2b\
=20	=20	=20	=20
1r	2e\]	1r	2.cc\
.	2c\	.	.
.	.	.	4b\
=21	=21	=21	=21
1r	2d\	1r	2a/
.	2e\	.	2g#/
=22	=22	=22	=22
1r	2f\	1r	2a/
.	2e\	.	2b\
=23	=23	=23	=23
1r	1e	1r	2e/
.	.	.	[2b\
=24	=24	=24	=24
1r	2d\	1r	2b\]
.	2e\	.	2g#/
=25	=25	=25	=25
1r	2f\	1r	2a/
.	2e\	.	2b\
=26	=26	=26	=26
1r	2r	1r	2cc\
.	2e\	.	2b\
=27	=27	=27	=27
1r	2d\	1r	2r
.	2e\	.	2b\
=28	=28	=28	=28
1r	2f\	1r	2a/
.	[2e\	.	2b\
=29	=29	=29	=29
1r	2e\]	1r	2cc\
.	2d\	.	[2b\
=30	=30	=30	=30
1r	2c\	1r	4b\]
.	.	.	4a/
.	4d\	.	[2a/
.	4c\	.	.
=31	=31	=31	=31
1r	4B\	1r	2a/]
.	4A/	.	.
.	2B\	.	2g#/
=32	=32	=32	=32
1r	1A	1r	1a
=33	=33	=33	=33
1r	2r	1r	1a
.	[2d\	.	.
=34	=34	=34	=34
1r	4d\]	1r	1a
.	4c#\	.	.
.	4d\	.	.
.	4e\	.	.
=35	=35	=35	=35
1r	4f\	1r	1a
.	4e\	.	.
.	4d\	.	.
.	4c\	.	.
=36	=36	=36	=36
1r	4B\	1r	1g#
.	4A/	.	.
.	2B\	.	.
=37	=37	=37	=37
1r	2A/	1r	1a
.	[2d\	.	.
=38	=38	=38	=38
1r	4d\]	1r	1b
.	4c#\	.	.
.	4d\	.	.
.	4e\	.	.
=39	=39	=39	=39
1r	4f\	1r	1a
.	4e\	.	.
.	4d\	.	.
.	4c\	.	.
=40	=40	=40	=40
1r	4B\	1r	1g
.	4A/	.	.
.	2B\	.	.
=41	=41	=41	=41
1r	2r	1r	1f
.	[2A/	.	.
=42	=42	=42	=42
1r	4A/]	1r	1e
.	4G#/	.	.
.	4A/	.	.
.	4B\	.	.
=43	=43	=43	=43
1r	4c\	1r	2r
.	4B\	.	.
.	4A/	.	[2e/
.	4G/	.	.
=44	=44	=44	=44
1r	4F/	1r	2e/]
.	4E/	.	.
.	2F/	.	2d/
=45	=45	=45	=45
1r	1E	1r	2e/
.	.	.	2g/
=46	=46	=46	=46
1r	1r	1r	2f/
.	.	.	2e/
=47	=47	=47	=47
1r	1A	1r	2r
.	.	.	[2e/
=48	=48	=48	=48
1r	1A	1r	4e/]
.	.	.	4d/
.	.	.	4e/
.	.	.	4f#/
=49	=49	=49	=49
1r	1G	1r	4g/
.	.	.	4f/
.	.	.	4e/
.	.	.	4d/
=50	=50	=50	=50
1r	1A	1r	2c/
.	.	.	2e/
=51	=51	=51	=51
1r	1B	1r	2d/
.	.	.	[2g/
=52	=52	=52	=52
1r	1A	1r	4g/]
.	.	.	4e/
.	.	.	[2f/
=53	=53	=53	=53
1r	1G	1r	4f/]
.	.	.	4e/
.	.	.	[2e/
=54	=54	=54	=54
1r	1F	1r	4e/]
.	.	.	4e/
.	.	.	2d/
=55	=55	=55	=55
1r	1E	1r	1e
=56	=56	=56	=56
1r	2r	1r	1e
.	[2A/	.	.
=57	=57	=57	=57
1r	2A/]	1r	1e
.	2G#/	.	.
=58	=58	=58	=58
1r	2A/	1r	1e
.	[2c\	.	.
=59	=59	=59	=59
1r	2c\]	1r	2r
.	4B\	.	[2a/
.	4A/	.	.
=60	=60	=60	=60
1r	1B	1r	2a/]
.	.	.	2g#/
=61	=61	=61	=61
1r	2.A/	1r	2a/
.	.	.	[2cc\
.	4G/	.	.
=62	=62	=62	=62
1r	1E	1r	2cc\]
.	.	.	4b\
.	.	.	4a/
=63	=63	=63	=63
1r	2r	1r	1b
.	2e\	.	.
=64	=64	=64	=64
1r	2f\	1r	2.a/
.	[2d\	.	.
.	.	.	4g/
=65	=65	=65	=65
1r	2d\]	1r	1e
.	2c#\	.	.
=66	=66	=66	=66
1r	2d\	1r	2r
.	[2e\	.	2b\
=67	=67	=67	=67
1r	4e\]	1r	2cc\
.	4d\	.	.
.	2c\	.	[2a/
=68	=68	=68	=68
1r	1B	1r	2a/]
.	.	.	2g#/
=69	=69	=69	=69
1r	2r	1r	2.a/
.	[2A/	.	.
.	.	.	4b\
=70	=70	=70	=70
1r	2A/]	1r	2cc\
.	2G#/	.	[2b\
=71	=71	=71	=71
1r	2.A/	1r	4b\]
.	.	.	4a/
.	.	.	[2a/
.	4B\	.	.
=72	=72	=72	=72
1r	2.c\	1r	2a/]
.	.	.	2g/
.	4B\	.	.
=73	=73	=73	=73
1r	2A/	1r	2f/
.	2G/	.	[2e/
=74	=74	=74	=74
1r	1F	1r	4e/]
.	.	.	4e/
.	.	.	2d/
=75	=75	=75	=75
1r	1E	1r	1e
==	==	==	==
*-	*-	*-	*-
!!!RDF**kern: l=long note in original notation
!!!ONB: RDF "l" not used in this piece (last notes are semibreves)
!!!RDF**kern: i=editorial accidental
!!!ENC:	Joel Chapman 2011/7/13; Victoria Chang 2011/08/08
!!!SMS: Fuenllana 1554 (only found in tablature)
!!!END:	2011/08/08/
!!!EED:	Jesse Rodin
!!!EEV: 2012/04/24/
!!attribution-level@Jos: 3 (tricky)
!!!ONB:	Translated from MusicXML and edited on 2011/08/10/ by Craig Sapp
!!muse2ps: u^Verse 6: Fecit potentiam^C^@{COA}?\n@{SCT}^I150v90,90,90,90,150c95Q16
